icons/op-strike-through-24.svg

<svg width="24" height="24" viewBox="0 0 24 24" fill="none" xmlns="http://www.w3.org/2000/svg">
<path d="M20 11.4688H14.7812C14.375 11.3125 13.9375 11.125 13.5 11C13 10.8438 12.5 10.6875 12.0312 10.5312C11.5625 10.375 11.125 10.1875 10.75 10C10.375 9.8125 10.0938 9.5625 9.84375 9.28125C9.625 9.03125 9.53125 8.6875 9.53125 8.28125C9.53125 7.96875 9.59375 7.65625 9.71875 7.375C9.875 7.09375 10.0625 6.875 10.3125 6.65625C10.5938 6.4375 10.9062 6.28125 11.25 6.15625C11.625 6.03125 12.0312 5.96875 12.5 5.96875C13.0312 5.96875 13.4688 6.03125 13.875 6.15625C14.25 6.28125 14.5938 6.40625 14.875 6.5625C15.1562 6.6875 15.375 6.8125 15.5625 6.9375C15.7812 7.03125 15.9375 7.09375 16.0938 7.09375C16.3438 7.09375 16.5 7 16.625 6.75L17.2188 5.75C16.6562 5.21875 15.9688 4.78125 15.1562 4.46875C14.3438 4.15625 13.4375 4 12.4375 4C11.5625 4 10.7812 4.125 10.0938 4.375C9.40625 4.625 8.8125 4.9375 8.34375 5.34375C7.875 5.75 7.53125 6.21875 7.28125 6.78125C7.03125 7.3125 6.90625 7.875 6.90625 8.4375C6.90625 9.125 7.03125 9.6875 7.25 10.1562C7.5 10.625 7.78125 11.0312 8.1875 11.3438C8.21875 11.4062 8.28125 11.4375 8.3125 11.4688H4V12.9062H11.5625C11.875 13 12.1562 13.0938 12.4375 13.1875C12.9375 13.3125 13.3438 13.5 13.7188 13.6875C14.0938 13.9062 14.4062 14.125 14.6562 14.4062C14.875 14.6875 15 15.0625 15 15.4688C15 15.8125 14.9375 16.1562 14.7812 16.4688C14.6562 16.75 14.4688 17.0312 14.2188 17.2812C13.9375 17.5 13.625 17.6875 13.2188 17.8125C12.8125 17.9688 12.3438 18.0312 11.8125 18.0312C11.1875 18.0312 10.6875 17.9375 10.2812 17.8125C9.84375 17.6875 9.5 17.5 9.21875 17.3438C8.9375 17.1562 8.6875 17 8.46875 16.875C8.28125 16.7188 8.0625 16.6562 7.90625 16.6562C7.71875 16.6562 7.5625 16.6875 7.4375 16.75C7.3125 16.8438 7.21875 16.9375 7.15625 17.0625L6.5 18.0938C7.125 18.6562 7.84375 19.0938 8.75 19.4688C9.625 19.8125 10.5938 20 11.6875 20C12.625 20 13.4688 19.875 14.1875 19.625C14.875 19.3438 15.5 19 16 18.5625C16.5 18.125 16.875 17.5938 17.125 16.9688C17.375 16.375 17.5 15.7188 17.5 15C17.5 14.375 17.375 13.8438 17.1562 13.4062C17.0625 13.2188 16.9375 13.0625 16.8438 12.9062H20V11.4688Z" fill="black"/>
</svg>

<svg xmlns="http://www.w3.org/2000/svg" width="24" height="24" viewBox="0 0 24 24"><path d="M20 11.469h-5.219c-.406-.157-.843-.344-1.281-.469-.5-.156-1-.312-1.469-.469A9.774 9.774 0 0 1 10.75 10a2.988 2.988 0 0 1-.906-.719c-.219-.25-.313-.593-.313-1 0-.312.063-.625.188-.906.156-.281.343-.5.593-.719.282-.218.594-.375.938-.5a3.89 3.89 0 0 1 1.25-.187c.531 0 .969.062 1.375.187.375.125.719.25 1 .406.281.126.5.25.687.376.219.093.376.156.532.156.25 0 .406-.094.531-.344l.594-1a6.237 6.237 0 0 0-2.063-1.281C14.344 4.156 13.438 4 12.438 4c-.876 0-1.657.125-2.344.375-.688.25-1.282.563-1.75.969a4.012 4.012 0 0 0-1.063 1.437 3.881 3.881 0 0 0-.375 1.657c0 .687.125 1.25.344 1.718.25.469.531.875.938 1.188.031.062.093.094.124.125H4v1.437h7.562c.313.094.594.188.876.282.5.124.906.312 1.281.5.375.218.687.437.937.718.219.282.344.656.344 1.063 0 .343-.062.687-.219 1a2.719 2.719 0 0 1-.562.812 3.02 3.02 0 0 1-1 .531c-.407.157-.875.219-1.407.219a5.112 5.112 0 0 1-1.531-.219c-.437-.124-.781-.312-1.062-.468a12.633 12.633 0 0 0-.75-.469.924.924 0 0 0-.563-.219c-.187 0-.344.032-.468.094a.893.893 0 0 0-.282.312L6.5 18.094c.625.562 1.344 1 2.25 1.375.875.343 1.844.531 2.938.531.937 0 1.781-.125 2.5-.375.687-.281 1.312-.625 1.812-1.063.5-.437.875-.968 1.125-1.593.25-.594.375-1.25.375-1.969 0-.625-.125-1.156-.344-1.594-.094-.187-.218-.344-.312-.5H20v-1.437Z"/></svg>
